X:148
T:Golden Hair
B:Terry "Cuz" Teahan "Sliabh Luachra on Parade" 1980
Z:Patrick Cavanagh
M:4/4
L:1/8
R:Hornpipe
K:G
A2 | Bggf gbaa | gedc BcBA | B/c/d Bg BgdB | c/B/A AG AcBA | 
Bggf gbaa | gedc BcBA | GBdg ecAF | G2GF G2 :| 
ga | bage dega | bd'bg a2ga | bggg egdg | egdB BAA2 | 
Bggf gbaa | gedc BcBA | GBdg ecAF | G2GF G2 :|| 

